X: 1048
T:She wants a Fellow
M:6/8
L:1/8
C:Kesswick June 19 1833
S:Armitt MS
N:Kesswick presumably refers to the town of Keswick rather than a Mr.
N:Kesswick.  But then again, maybe not
K:D major
c|d2DF2D|ABA ABc|d2A GFE|FDD Dfe|d2DF2D|ABA ABc|d2GGFE|FDDD2:||:A|dcd Bc
d|dfd cBA|dcd efg|fdd def|gfg Bcd|efd cBA|d2A2 GFE|FDDD2:||
